client/assets/wp-vip-logo.svg

<svg focusable="false" aria-hidden="true" height="31" viewBox="0 0 514.54 225.53" width="69" xmlns="http://www.w3.org/2000/svg"><path d="m112.76 0a112.77 112.77 0 1 0 112.76 112.76 112.88 112.88 0 0 0 -112.76-112.76zm-101.38 112.76a100.89 100.89 0 0 1 8.78-41.26l48.36 132.5a101.39 101.39 0 0 1 -57.14-91.24zm101.38 101.39a101.38 101.38 0 0 1 -28.64-4.15l30.42-88.39 31.16 85.39a9.27 9.27 0 0 0 .73 1.4 101.18 101.18 0 0 1 -33.67 5.75zm14-148.93c6.1-.32 11.6-1 11.6-1 5.47-.64 4.82-8.67-.64-8.35 0 0-16.42 1.29-27 1.29-10 0-26.7-1.29-26.7-1.29-5.47-.32-6.11 8-.65 8.35 0 0 5.17.64 10.64 1l15.79 43.28-22.24 66.5-36.91-109.78c6.1-.32 11.6-1 11.6-1 5.46-.64 4.81-8.67-.65-8.35 0 0-16.42 1.29-27 1.29-1.9 0-4.14-.05-6.53-.13a101.36 101.36 0 0 1 153.15-19.03c-.44 0-.86-.09-1.31-.09-10 0-17 8.68-17 18 0 8.35 4.82 15.42 10 23.77 3.85 6.76 8.36 15.43 8.36 28q0 13-7.72 32.78l-10.18 33.74zm37 135.17 31-89.53c5.79-14.47 7.71-26 7.71-36.31a77.11 77.11 0 0 0 -.68-10.43 101.4 101.4 0 0 1 -38 136.27z"/><path d="m327.48 60.61-22.78 67.2c-2.43 8.18-4.45 16-5.06 23.26h-.59c-.61-7.3-2.63-15.08-5.07-23.26l-22.78-67.2h-30.45l43.25 113.39h30.79l43.2-113.37z"/><path d="m373.14 60.59-8.62 22.61v90.76h30.46v-113.37z"/><path d="m503.18 74q-11.35-15.53-31.44-15.52c-14.19 0-23.84 5.61-31.07 16.83h-1.42l-4.36-14.7h-24.68v164.9h30.46v-47.59q0-2.23-1.62-16.43h1.62c7.57 9.67 16.94 14.5 30.26 14.5a38.81 38.81 0 0 0 23.12-7q9.84-7 15.16-20.38t5.33-31.54q0-27.57-11.36-43.07zm-39.9 77q-11.76 0-17.18-7.91t-5.43-26.16v-3.35q.21-16.22 5.48-23.27t16.73-7q11 0 16.07 8.37t5.12 25.1q0 34.17-20.79 34.16z"/></svg>

<svg xmlns="http://www.w3.org/2000/svg" viewBox="0 0 514.54 225.53"><g id="Layer_2" data-name="Layer 2"><g id="Layer_1-2" data-name="Layer 1"><path class="cls-1" d="M112.76,0A112.77,112.77,0,1,0,225.52,112.76,112.88,112.88,0,0,0,112.76,0ZM11.38,112.76A100.89,100.89,0,0,1,20.16,71.5L68.52,204A101.39,101.39,0,0,1,11.38,112.76ZM112.76,214.15A101.38,101.38,0,0,1,84.12,210l30.42-88.39L145.7,207a9.27,9.27,0,0,0,.73,1.4A101.18,101.18,0,0,1,112.76,214.15Zm14-148.93c6.1-.32,11.6-1,11.6-1,5.47-.64,4.82-8.67-.64-8.35,0,0-16.42,1.29-27,1.29-10,0-26.7-1.29-26.7-1.29-5.47-.32-6.11,8-.65,8.35,0,0,5.17.64,10.64,1l15.79,43.28L87.56,175,50.65,65.22c6.1-.32,11.6-1,11.6-1,5.46-.64,4.81-8.67-.65-8.35,0,0-16.42,1.29-27,1.29-1.9,0-4.14-.05-6.53-.13A101.36,101.36,0,0,1,181.22,38c-.44,0-.86-.09-1.31-.09-10,0-17,8.68-17,18,0,8.35,4.82,15.42,10,23.77,3.85,6.76,8.36,15.43,8.36,28q0,13-7.72,32.78L163.37,174.2Zm37,135.17,31-89.53c5.79-14.47,7.71-26,7.71-36.31a77.11,77.11,0,0,0-.68-10.43,101.4,101.4,0,0,1-38,136.27Z"/><path class="cls-1" d="M327.48,60.61l-22.78,67.2c-2.43,8.18-4.45,16-5.06,23.26h-.59c-.61-7.3-2.63-15.08-5.07-23.26L271.2,60.61H240.75L284,174h30.79l43.2-113.37Z"/><polygon class="cls-1" points="373.14 60.59 364.52 83.2 364.52 173.96 394.98 173.96 394.98 60.59 373.14 60.59"/><path class="cls-1" d="M503.18,74q-11.35-15.53-31.44-15.52c-14.19,0-23.84,5.61-31.07,16.83h-1.42l-4.36-14.7H410.21V225.51h30.46V177.92q0-2.23-1.62-16.43h1.62c7.57,9.67,16.94,14.5,30.26,14.5a38.81,38.81,0,0,0,23.12-7q9.84-7,15.16-20.38t5.33-31.54Q514.54,89.5,503.18,74Zm-39.9,77q-11.76,0-17.18-7.91t-5.43-26.16v-3.35q.21-16.22,5.48-23.27t16.73-7q11,0,16.07,8.37t5.12,25.1Q484.07,150.95,463.28,150.94Z"/></g></g></svg>
